; generated by PrusaSlicer 2.2.0+ on 2020-10-30 at 13:20:57 UTC

; 

; external perimeters extrusion width = 0.45mm
; perimeters extrusion width = 0.45mm
; infill extrusion width = 0.45mm
; solid infill extrusion width = 0.45mm
; top infill extrusion width = 0.40mm
; first layer extrusion width = 0.42mm

M73 P0 R51
M73 Q0 S51
M201 X1000 Y1000 Z200 E5000 ; sets maximum accelerations, mm/sec^2
M203 X200 Y200 Z12 E120 ; sets maximum feedrates, mm/sec
M204 P1250 R1250 T1250 ; sets acceleration (P, T) and retract acceleration (R), mm/sec^2
M205 X8.00 Y8.00 Z0.40 E4.50 ; sets the jerk limits, mm/sec
M205 S0 T0 ; sets the minimum extruding and travel feed rate, mm/sec
M107 ; disable fan
M862.3 P "MK3S" ; printer model check
M862.1 P0.4 ; nozzle diameter check
M115 U3.9.1 ; tell printer latest fw version
G90 ; use absolute coordinates
M83 ; extruder relative mode
M104 S215 ; set extruder temp
M140 S60 ; set bed temp
M190 S60 ; wait for bed temp
M109 S215 ; wait for extruder temp
G28 W ; home all without mesh bed level
G80 ; mesh bed leveling
G1 Y-3.0 F1000.0 ; go outside print area
G92 E0.0
G1 X60.0 E9.0 F1000.0 ; intro line
M73 Q0 S51
M73 P0 R51
G1 X100.0 E12.5 F1000.0 ; intro line
G92 E0.0
M221 S95

; Don't change E values below. Excessive value can damage the printer.
M907 E430 ; set extruder motor current
G21 ; set units to millimeters
G90 ; use absolute coordinates
M83 ; use relative distances for extrusion
M900 K0.05 ; Filament gcode LA 1.5
M900 K30 ; Filament gcode LA 1.0
;BEFORE_LAYER_CHANGE
G92 E0.0
;0.2


G1 E-0.80000 F2100.00000 ; retract
G1 Z0.600 F10800.000 ; lift Z
;AFTER_LAYER_CHANGE
;0.2
G1 X101.043 Y97.010 ; move to first skirt point
G1 Z0.200 ; restore layer Z
G1 E0.80000 F2100.00000 ; unretract
M204 S1000 ; adjust acceleration
G1 F1200.000
G1 X101.804 Y96.520 E0.02837 ; skirt
G1 X102.689 Y96.350 E0.02825 ; skirt
G1 X152.723 Y96.660 E1.56882 ; skirt
G1 X153.449 Y96.786 E0.02308 ; skirt
G1 X154.098 Y97.125 E0.02296 ; skirt
G1 X154.498 Y97.498 E0.01716 ; skirt
G1 X154.803 Y97.957 E0.01728 ; skirt
G1 X154.995 Y98.473 E0.01728 ; skirt
G1 X155.063 Y99.020 E0.01728 ; skirt
G1 X154.852 Y133.081 E1.06799 ; skirt
G1 X154.727 Y133.799 E0.02284 ; skirt
G1 X154.390 Y134.445 E0.02284 ; skirt
G1 X154.014 Y134.848 E0.01728 ; skirt
G1 X153.552 Y135.155 E0.01740 ; skirt
G1 X153.035 Y135.346 E0.01728 ; skirt
G1 X152.484 Y135.413 E0.01740 ; skirt
G1 X102.439 Y135.103 E1.56918 ; skirt
G1 X101.713 Y134.978 E0.02308 ; skirt
G1 X101.064 Y134.639 E0.02296 ; skirt
G1 X100.667 Y134.268 E0.01704 ; skirt
G1 X100.366 Y133.820 E0.01692 ; skirt
G1 X100.172 Y133.312 E0.01704 ; skirt
G1 X100.100 Y132.777 E0.01692 ; skirt
G1 X100.312 Y98.625 E1.07086 ; skirt
G1 X100.522 Y97.745 E0.02837 ; skirt
G1 X101.009 Y97.059 E0.02637 ; skirt
G1 F8640.000
G1 X101.804 Y96.520 E-0.22184 ; wipe and retract
G1 X102.689 Y96.350 E-0.20806 ; wipe and retract
G1 X104.119 Y96.359 E-0.33011 ; wipe and retract
G1 E-0.04000 F2100.00000 ; retract
G1 Z0.800 F10800.000 ; lift Z
G1 X139.721 Y127.670 ; move to first perimeter point
G1 Z0.200 ; restore layer Z
G1 E0.80000 F2100.00000 ; unretract
G1 F1200.000
G1 X147.295 Y127.717 E0.23748 ; perimeter
G1 X147.273 Y131.291 E0.11207 ; perimeter
G1 X139.699 Y131.244 E0.23748 ; perimeter
G1 X139.721 Y127.730 E0.11018 ; perimeter
G1 X140.096 Y128.049 F10800.000 ; move to first perimeter point
G1 F1200.000
G1 X146.916 Y128.092 E0.21384 ; perimeter
G1 X146.898 Y130.912 E0.08842 ; perimeter
G1 X140.078 Y130.869 E0.21384 ; perimeter
G1 X140.095 Y128.109 E0.08654 ; perimeter
G1 X139.945 Y127.679 F10800.000 ; move inwards before travel
G1 F8640.000
G1 X143.387 Y128.101 E-0.76000 ; wipe and retract
G1 E-0.04000 F2100.00000 ; retract
G1 Z0.800 F10800.000 ; lift Z
G1 X139.888 Y100.671 ; move to first perimeter point
G1 Z0.200 ; restore layer Z
G1 E0.80000 F2100.00000 ; unretract
G1 F1200.000
G1 X147.462 Y100.717 E0.23748 ; perimeter
G1 X147.440 Y104.292 E0.11207 ; perimeter
G1 X139.866 Y104.245 E0.23748 ; perimeter
G1 X139.888 Y100.731 E0.11018 ; perimeter
G1 X140.263 Y101.050 F10800.000 ; move to first perimeter point
G1 F1200.000
G1 X147.083 Y101.092 E0.21384 ; perimeter
G1 X147.066 Y103.912 E0.08842 ; perimeter
G1 X140.246 Y103.870 E0.21384 ; perimeter
G1 X140.263 Y101.110 E0.08654 ; perimeter
G1 X140.112 Y100.679 F10800.000 ; move inwards before travel
G1 F8640.000
G1 X143.554 Y101.101 E-0.76000 ; wipe and retract
G1 E-0.04000 F2100.00000 ; retract
G1 Z0.800 F10800.000 ; lift Z
G1 X105.889 Y100.460 ; move to first perimeter point
G1 Z0.200 ; restore layer Z
G1 E0.80000 F2100.00000 ; unretract
G1 F1200.000
G1 X113.463 Y100.507 E0.23748 ; perimeter
G1 X113.441 Y104.081 E0.11207 ; perimeter
G1 X105.867 Y104.034 E0.23748 ; perimeter
G1 X105.889 Y100.520 E0.11018 ; perimeter
G1 X106.264 Y100.839 F10800.000 ; move to first perimeter point
G1 F1200.000
G1 X113.084 Y100.882 E0.21384 ; perimeter
G1 X113.066 Y103.701 E0.08842 ; perimeter
G1 X106.246 Y103.659 E0.21384 ; perimeter
G1 X106.263 Y100.899 E0.08654 ; perimeter
G1 X106.113 Y100.469 F10800.000 ; move inwards before travel
G1 F8640.000
G1 X109.555 Y100.891 E-0.76000 ; wipe and retract
G1 E-0.04000 F2100.00000 ; retract
G1 Z0.800 F10800.000 ; lift Z
G1 X105.722 Y127.459 ; move to first perimeter point
G1 Z0.200 ; restore layer Z
G1 E0.80000 F2100.00000 ; unretract
G1 F1200.000
G1 X113.296 Y127.506 E0.23748 ; perimeter
G1 X113.274 Y131.080 E0.11207 ; perimeter
G1 X105.700 Y131.033 E0.23748 ; perimeter
G1 X105.721 Y127.519 E0.11018 ; perimeter
G1 X106.097 Y127.839 F10800.000 ; move to first perimeter point
G1 F1200.000
G1 X112.916 Y127.881 E0.21384 ; perimeter
G1 X112.899 Y130.701 E0.08842 ; perimeter
G1 X106.079 Y130.659 E0.21384 ; perimeter
G1 X106.096 Y127.899 E0.08654 ; perimeter
G1 X105.946 Y127.468 F10800.000 ; move inwards before travel
G1 F8640.000
G1 X109.388 Y127.890 E-0.76000 ; wipe and retract
G1 E-0.04000 F2100.00000 ; retract
G1 Z0.800 F10800.000 ; lift Z
G1 X103.268 Y131.944 ; move to first perimeter point
G1 Z0.200 ; restore layer Z
G1 E0.80000 F2100.00000 ; unretract
G1 F1200.000
G1 X103.469 Y99.519 E1.01669 ; perimeter
G1 X151.894 Y99.819 E1.51836 ; perimeter
G1 X151.693 Y132.244 E1.01669 ; perimeter
G1 X103.328 Y131.945 E1.51648 ; perimeter
G1 X102.889 Y132.319 F10800.000 ; move to first perimeter point
G1 F1200.000
G1 X103.094 Y99.140 E1.04034 ; perimeter
G1 X152.273 Y99.444 E1.54200 ; perimeter
G1 X152.068 Y132.624 E1.04034 ; perimeter
G1 X102.949 Y132.319 E1.54012 ; perimeter
G1 X103.019 Y131.941 F10800.000 ; move inwards before travel
G1 F8640.000
G1 X102.963 Y129.028 E-0.76000 ; wipe and retract
G1 E-0.04000 F2100.00000 ; retract
G1 Z0.800 F10800.000 ; lift Z
G1 X104.153 Y131.837 ; move to first infill point
G1 Z0.200 ; restore layer Z
G1 E0.80000 F2100.00000 ; unretract
G1 F1200.000
G1 X103.555 Y131.239 E0.02662 ; infill
G1 X103.559 Y130.707 E0.01678 ; infill
G1 X104.521 Y131.669 E0.04289 ; infill
G1 X105.060 Y131.673 E0.01699 ; infill
G1 X103.562 Y130.174 E0.06676 ; infill
G1 X103.565 Y129.642 E0.01678 ; infill
G1 X105.599 Y131.676 E0.09064 ; infill
G1 X106.139 Y131.679 E0.01699 ; infill
G1 X105.776 Y131.317 E0.01615 ; infill
G1 X106.315 Y131.320 E0.01699 ; infill
G1 X106.678 Y131.683 E0.01615 ; infill
G1 X107.217 Y131.686 E0.01699 ; infill
G1 X106.854 Y131.323 E0.01615 ; infill
G1 X107.394 Y131.327 E0.01699 ; infill
G1 X107.756 Y131.689 E0.01615 ; infill
G1 X108.295 Y131.693 E0.01699 ; infill
G1 X107.933 Y131.330 E0.01615 ; infill
G1 X108.472 Y131.333 E0.01699 ; infill
G1 X108.834 Y131.696 E0.01615 ; infill
G1 X109.374 Y131.699 E0.01699 ; infill
G1 X109.011 Y131.337 E0.01615 ; infill
G1 X109.550 Y131.340 E0.01699 ; infill
G1 X109.913 Y131.703 E0.01615 ; infill
G1 X110.452 Y131.706 E0.01699 ; infill
G1 X110.089 Y131.343 E0.01615 ; infill
G1 X110.629 Y131.347 E0.01699 ; infill
G1 X110.991 Y131.709 E0.01615 ; infill
G1 X111.530 Y131.713 E0.01699 ; infill
G1 X111.168 Y131.350 E0.01615 ; infill
G1 X111.707 Y131.353 E0.01699 ; infill
G1 X112.069 Y131.716 E0.01615 ; infill
G1 X112.609 Y131.719 E0.01699 ; infill
G1 X112.246 Y131.357 E0.01615 ; infill
G1 X112.785 Y131.360 E0.01699 ; infill
G1 X113.148 Y131.723 E0.01615 ; infill
G1 X113.687 Y131.726 E0.01699 ; infill
G1 X113.324 Y131.363 E0.01615 ; infill
G1 X113.555 Y131.365 E0.00725 ; infill
G1 X113.557 Y131.060 E0.00961 ; infill
G1 X114.226 Y131.729 E0.02983 ; infill
G1 X114.765 Y131.733 E0.01699 ; infill
G1 X113.560 Y130.527 E0.05371 ; infill
G1 X113.563 Y129.995 E0.01678 ; infill
G1 X115.304 Y131.736 E0.07758 ; infill
G1 X115.844 Y131.739 E0.01699 ; infill
G1 X113.566 Y129.462 E0.10146 ; infill
G1 X113.570 Y128.930 E0.01678 ; infill
G1 X116.383 Y131.743 E0.12533 ; infill
G1 X116.922 Y131.746 E0.01699 ; infill
G1 X113.573 Y128.397 E0.14921 ; infill
G1 X113.576 Y127.865 E0.01678 ; infill
G1 X117.461 Y131.749 E0.17308 ; infill
G1 X118.000 Y131.753 E0.01699 ; infill
G1 X103.641 Y117.393 E0.63976 ; infill
G1 X103.644 Y116.861 E0.01678 ; infill
G1 X118.539 Y131.756 E0.66364 ; infill
G1 X119.079 Y131.759 E0.01699 ; infill
G1 X103.648 Y116.328 E0.68751 ; infill
G1 X103.651 Y115.796 E0.01678 ; infill
G1 X119.618 Y131.763 E0.71139 ; infill
G1 X120.157 Y131.766 E0.01699 ; infill
G1 X103.654 Y115.263 E0.73526 ; infill
G1 X103.658 Y114.731 E0.01678 ; infill
G1 X120.696 Y131.769 E0.75914 ; infill
G1 X121.235 Y131.773 E0.01699 ; infill
G1 X103.661 Y114.198 E0.78301 ; infill
G1 X103.664 Y113.666 E0.01678 ; infill
G1 X121.774 Y131.776 E0.80689 ; infill
G1 X122.314 Y131.779 E0.01699 ; infill
G1 X103.667 Y113.133 E0.83076 ; infill
G1 X103.671 Y112.601 E0.01678 ; infill
G1 X122.853 Y131.783 E0.85464 ; infill
G1 X123.392 Y131.786 E0.01699 ; infill
G1 X103.674 Y112.068 E0.87851 ; infill
G1 X103.677 Y111.536 E0.01678 ; infill
G1 X123.931 Y131.789 E0.90239 ; infill
M73 Q2 S50
G1 X124.470 Y131.793 E0.01699 ; infill
G1 X103.681 Y111.003 E0.92626 ; infill
M73 P2 R50
G1 X103.684 Y110.471 E0.01678 ; infill
G1 X125.009 Y131.796 E0.95014 ; infill
G1 X125.549 Y131.799 E0.01699 ; infill
G1 X103.687 Y109.938 E0.97401 ; infill
G1 X103.691 Y109.406 E0.01678 ; infill
G1 X126.088 Y131.803 E0.99789 ; infill
G1 X126.627 Y131.806 E0.01699 ; infill
G1 X103.694 Y108.873 E1.02176 ; infill
G1 X103.697 Y108.341 E0.01678 ; infill
G1 X127.166 Y131.810 E1.04564 ; infill
G1 X127.705 Y131.813 E0.01699 ; infill
G1 X103.700 Y107.808 E1.06951 ; infill
G1 X103.704 Y107.275 E0.01678 ; infill
G1 X128.244 Y131.816 E1.09339 ; infill
G1 X128.784 Y131.820 E0.01699 ; infill
G1 X103.707 Y106.743 E1.11726 ; infill
G1 X103.710 Y106.210 E0.01678 ; infill
G1 X129.323 Y131.823 E1.14114 ; infill
G1 X129.862 Y131.826 E0.01699 ; infill
G1 X103.714 Y105.678 E1.16501 ; infill
G1 X103.717 Y105.145 E0.01678 ; infill
G1 X130.401 Y131.830 E1.18889 ; infill
G1 X130.940 Y131.833 E0.01699 ; infill
G1 X103.720 Y104.613 E1.21276 ; infill
G1 X103.724 Y104.080 E0.01678 ; infill
G1 X131.480 Y131.836 E1.23664 ; infill
G1 X132.019 Y131.840 E0.01699 ; infill
G1 X103.727 Y103.548 E1.26052 ; infill
G1 X103.730 Y103.015 E0.01678 ; infill
G1 X132.729 Y132.014 E1.29200 ; infill
G1 F8640.000
G1 X130.401 Y129.686 E-0.76000 ; wipe and retract
G1 E-0.04000 F2100.00000 ; retract
G1 Z0.800 F10800.000 ; lift Z
G1 X140.112 Y131.360 ; move to first infill point
G1 Z0.200 ; restore layer Z
G1 E0.80000 F2100.00000 ; unretract
G1 F1200.000
G1 X140.645 Y131.893 E0.02376 ; infill
G1 X141.185 Y131.896 E0.01699 ; infill
G1 X140.822 Y131.534 E0.01615 ; infill
G1 X141.361 Y131.537 E0.01699 ; infill
G1 X141.724 Y131.900 E0.01615 ; infill
G1 X142.263 Y131.903 E0.01699 ; infill
G1 X141.900 Y131.541 E0.01615 ; infill
G1 X142.440 Y131.544 E0.01699 ; infill
G1 X142.802 Y131.906 E0.01615 ; infill
G1 X143.341 Y131.910 E0.01699 ; infill
G1 X142.979 Y131.547 E0.01615 ; infill
G1 X143.518 Y131.551 E0.01699 ; infill
G1 X143.880 Y131.913 E0.01615 ; infill
G1 X144.420 Y131.916 E0.01699 ; infill
G1 X144.057 Y131.554 E0.01615 ; infill
G1 X144.596 Y131.557 E0.01699 ; infill
G1 X144.959 Y131.920 E0.01615 ; infill
G1 X145.498 Y131.923 E0.01699 ; infill
G1 X145.135 Y131.561 E0.01615 ; infill
G1 X145.675 Y131.564 E0.01699 ; infill
G1 X146.037 Y131.926 E0.01615 ; infill
G1 X146.576 Y131.930 E0.01699 ; infill
G1 X146.214 Y131.567 E0.01615 ; infill
G1 X146.753 Y131.571 E0.01699 ; infill
G1 X147.115 Y131.933 E0.01615 ; infill
G1 X147.655 Y131.936 E0.01699 ; infill
G1 X147.292 Y131.574 E0.01615 ; infill
G1 X147.554 Y131.576 E0.00825 ; infill
G1 X147.556 Y131.302 E0.00862 ; infill
G1 X148.194 Y131.940 E0.02842 ; infill
G1 X148.733 Y131.943 E0.01699 ; infill
G1 X147.559 Y130.769 E0.05230 ; infill
G1 X147.562 Y130.237 E0.01678 ; infill
G1 X149.272 Y131.947 E0.07617 ; infill
G1 X149.811 Y131.950 E0.01699 ; infill
G1 X147.566 Y129.704 E0.10005 ; infill
G1 X147.569 Y129.172 E0.01678 ; infill
G1 X150.350 Y131.953 E0.12392 ; infill
G1 X150.890 Y131.957 E0.01699 ; infill
G1 X147.572 Y128.639 E0.14780 ; infill
G1 X147.576 Y128.107 E0.01678 ; infill
G1 X151.412 Y131.943 E0.17093 ; infill
G1 X151.415 Y131.411 E0.01678 ; infill
G1 X119.908 Y99.904 E1.40377 ; infill
G1 X120.447 Y99.907 E0.01699 ; infill
G1 X151.419 Y130.878 E1.37989 ; infill
G1 X151.422 Y130.346 E0.01678 ; infill
G1 X120.987 Y99.910 E1.35602 ; infill
G1 X121.526 Y99.914 E0.01699 ; infill
G1 X151.425 Y129.813 E1.33214 ; infill
G1 X151.429 Y129.281 E0.01678 ; infill
G1 X122.065 Y99.917 E1.30827 ; infill
G1 X122.604 Y99.920 E0.01699 ; infill
G1 X151.432 Y128.748 E1.28439 ; infill
G1 X151.435 Y128.216 E0.01678 ; infill
G1 X123.143 Y99.924 E1.26052 ; infill
G1 X123.682 Y99.927 E0.01699 ; infill
G1 X151.438 Y127.683 E1.23664 ; infill
G1 X151.442 Y127.151 E0.01678 ; infill
G1 X124.222 Y99.930 E1.21277 ; infill
G1 X124.761 Y99.934 E0.01699 ; infill
G1 X151.445 Y126.618 E1.18889 ; infill
G1 X151.448 Y126.085 E0.01678 ; infill
G1 X125.300 Y99.937 E1.16502 ; infill
G1 X125.839 Y99.940 E0.01699 ; infill
G1 X151.452 Y125.553 E1.14114 ; infill
G1 X151.455 Y125.020 E0.01678 ; infill
G1 X126.378 Y99.944 E1.11727 ; infill
G1 X126.917 Y99.947 E0.01699 ; infill
G1 X151.458 Y124.488 E1.09339 ; infill
G1 X151.462 Y123.955 E0.01678 ; infill
G1 X127.457 Y99.950 E1.06952 ; infill
M73 Q4 S49
G1 X127.996 Y99.954 E0.01699 ; infill
G1 X151.465 Y123.423 E1.04564 ; infill
M73 P4 R49
G1 X151.468 Y122.890 E0.01678 ; infill
G1 X128.535 Y99.957 E1.02177 ; infill
G1 X129.074 Y99.960 E0.01699 ; infill
G1 X151.471 Y122.358 E0.99789 ; infill
G1 X151.475 Y121.825 E0.01678 ; infill
G1 X129.613 Y99.964 E0.97402 ; infill
G1 X130.152 Y99.967 E0.01699 ; infill
G1 X151.478 Y121.293 E0.95014 ; infill
G1 X151.481 Y120.760 E0.01678 ; infill
G1 X130.692 Y99.970 E0.92627 ; infill
G1 X131.231 Y99.974 E0.01699 ; infill
G1 X151.485 Y120.228 E0.90239 ; infill
G1 X151.488 Y119.695 E0.01678 ; infill
G1 X131.770 Y99.977 E0.87852 ; infill
G1 X132.309 Y99.981 E0.01699 ; infill
G1 X151.491 Y119.163 E0.85464 ; infill
G1 X151.495 Y118.630 E0.01678 ; infill
G1 X132.848 Y99.984 E0.83077 ; infill
G1 X133.387 Y99.987 E0.01699 ; infill
G1 X151.498 Y118.098 E0.80689 ; infill
G1 X151.501 Y117.565 E0.01678 ; infill
G1 X133.927 Y99.991 E0.78302 ; infill
G1 X134.466 Y99.994 E0.01699 ; infill
G1 X151.673 Y117.201 E0.76666 ; infill
G1 F8640.000
G1 X149.346 Y114.874 E-0.76000 ; wipe and retract
G1 E-0.04000 F2100.00000 ; retract
G1 Z0.800 F10800.000 ; lift Z
G1 X147.071 Y127.602 ; move to first infill point
G1 Z0.200 ; restore layer Z
G1 E0.80000 F2100.00000 ; unretract
G1 F1200.000
G1 X119.369 Y99.900 E1.23424 ; infill
G1 X118.830 Y99.897 E0.01699 ; infill
G1 X146.361 Y127.428 E1.22664 ; infill
G1 X145.822 Y127.425 E0.01699 ; infill
G1 X118.291 Y99.894 E1.22664 ; infill
G1 X117.752 Y99.890 E0.01699 ; infill
G1 X145.283 Y127.422 E1.22664 ; infill
G1 X144.744 Y127.418 E0.01699 ; infill
G1 X117.212 Y99.887 E1.22664 ; infill
G1 X116.673 Y99.884 E0.01699 ; infill
G1 X144.205 Y127.415 E1.22664 ; infill
G1 X143.666 Y127.412 E0.01699 ; infill
G1 X116.134 Y99.880 E1.22664 ; infill
G1 X115.595 Y99.877 E0.01699 ; infill
G1 X143.126 Y127.408 E1.22664 ; infill
G1 X142.587 Y127.405 E0.01699 ; infill
G1 X115.056 Y99.874 E1.22664 ; infill
