; generated by PrusaSlicer 2.2.0+ on 2020-10-27 at 14:55:41 UTC

; 

; external perimeters extrusion width = 0.45mm
; perimeters extrusion width = 0.45mm
; infill extrusion width = 0.45mm
; solid infill extrusion width = 0.45mm
; top infill extrusion width = 0.40mm
; support material extrusion width = 0.35mm
; first layer extrusion width = 0.42mm

M73 P0 R57
M73 Q0 S57
M201 X1000 Y1000 Z200 E5000 ; sets maximum accelerations, mm/sec^2
M203 X200 Y200 Z12 E120 ; sets maximum feedrates, mm/sec
M204 P1250 R1250 T1250 ; sets acceleration (P, T) and retract acceleration (R), mm/sec^2
M205 X8.00 Y8.00 Z0.40 E4.50 ; sets the jerk limits, mm/sec
M205 S0 T0 ; sets the minimum extruding and travel feed rate, mm/sec
M107 ; disable fan
M862.3 P "MK3S" ; printer model check
M862.1 P0.4 ; nozzle diameter check
M115 U3.9.1 ; tell printer latest fw version
G90 ; use absolute coordinates
M83 ; extruder relative mode
M104 S215 ; set extruder temp
M140 S60 ; set bed temp
M190 S60 ; wait for bed temp
M109 S215 ; wait for extruder temp
G28 W ; home all without mesh bed level
G80 ; mesh bed leveling
G1 Y-3.0 F1000.0 ; go outside print area
G92 E0.0
G1 X60.0 E9.0 F1000.0 ; intro line
M73 Q0 S57
M73 P0 R57
G1 X100.0 E12.5 F1000.0 ; intro line
G92 E0.0
M221 S95

; Don't change E values below. Excessive value can damage the printer.
M907 E430 ; set extruder motor current
G21 ; set units to millimeters
G90 ; use absolute coordinates
M83 ; use relative distances for extrusion
M900 K0.05 ; Filament gcode LA 1.5
M900 K30 ; Filament gcode LA 1.0
;BEFORE_LAYER_CHANGE
G92 E0.0
;0.2


G1 E-0.80000 F2100.00000 ; retract
G1 Z0.600 F10800.000 ; lift Z
;AFTER_LAYER_CHANGE
;0.2
G1 X99.964 Y72.342 ; move to first skirt point
G1 Z0.200 ; restore layer Z
G1 E0.80000 F2100.00000 ; unretract
M204 S1000 ; adjust acceleration
G1 F1200.000
G1 X100.728 Y71.843 E0.02860 ; skirt
G1 X101.624 Y71.669 E0.02860 ; skirt
G1 X148.433 Y71.840 E1.46769 ; skirt
G1 X148.972 Y71.914 E0.01704 ; skirt
G1 X149.482 Y72.111 E0.01716 ; skirt
G1 X149.932 Y72.416 E0.01704 ; skirt
G1 X150.300 Y72.816 E0.01704 ; skirt
G1 X150.636 Y73.471 E0.02308 ; skirt
G1 X150.756 Y74.201 E0.02319 ; skirt
G1 X150.756 Y135.973 E1.93682 ; skirt
G1 X150.688 Y136.520 E0.01728 ; skirt
G1 X150.494 Y137.039 E0.01740 ; skirt
G1 X150.184 Y137.500 E0.01740 ; skirt
G1 X149.777 Y137.876 E0.01740 ; skirt
G1 X149.122 Y138.212 E0.02308 ; skirt
G1 X148.391 Y138.331 E0.02319 ; skirt
G1 X101.590 Y138.161 E1.46745 ; skirt
G1 X101.043 Y138.090 E0.01728 ; skirt
G1 X100.531 Y137.896 E0.01716 ; skirt
G1 X100.074 Y137.589 E0.01728 ; skirt
G1 X99.700 Y137.184 E0.01728 ; skirt
G1 X99.364 Y136.529 E0.02308 ; skirt
G1 X99.244 Y135.799 E0.02319 ; skirt
G1 X99.245 Y73.978 E1.93837 ; skirt
G1 X99.446 Y73.088 E0.02860 ; skirt
G1 X99.930 Y72.391 E0.02661 ; skirt
G1 F8640.000
G1 X100.728 Y71.843 E-0.22355 ; wipe and retract
G1 X101.624 Y71.669 E-0.21065 ; wipe and retract
G1 X103.035 Y71.674 E-0.32581 ; wipe and retract
G1 E-0.04000 F2100.00000 ; retract
G1 Z0.800 F10800.000 ; lift Z
G1 X148.379 Y135.954 ; move to first support material point
G1 Z0.200 ; restore layer Z
G1 E0.80000 F2100.00000 ; unretract
G1 F1200.000
G1 X148.379 Y74.216 E1.93574 ; support material
G1 X147.625 Y74.216 E0.02365 ; support material
G1 X147.625 Y135.784 E1.93042 ; support material
G1 X146.871 Y135.784 E0.02365 ; support material
G1 X146.871 Y74.216 E1.93042 ; support material
G1 X146.116 Y74.216 E0.02365 ; support material
G1 X146.116 Y135.784 E1.93042 ; support material
G1 X145.362 Y135.784 E0.02365 ; support material
G1 X145.362 Y74.216 E1.93042 ; support material
G1 X144.608 Y74.216 E0.02365 ; support material
G1 X144.608 Y135.784 E1.93042 ; support material
G1 X143.854 Y135.784 E0.02365 ; support material
G1 X143.854 Y74.216 E1.93042 ; support material
G1 X143.100 Y74.216 E0.02365 ; support material
G1 X143.100 Y135.784 E1.93042 ; support material
G1 X142.346 Y135.784 E0.02365 ; support material
G1 X142.346 Y74.216 E1.93042 ; support material
G1 X141.592 Y74.216 E0.02365 ; support material
G1 X141.591 Y135.784 E1.93042 ; support material
G1 X140.837 Y135.784 E0.02365 ; support material
G1 X140.837 Y74.216 E1.93042 ; support material
G1 X140.083 Y74.216 E0.02365 ; support material
G1 X140.083 Y135.784 E1.93042 ; support material
G1 X139.329 Y135.784 E0.02365 ; support material
G1 X139.329 Y74.216 E1.93042 ; support material
G1 X138.575 Y74.216 E0.02365 ; support material
G1 X138.575 Y135.784 E1.93042 ; support material
M73 Q1 S56
G1 X137.821 Y135.784 E0.02365 ; support material
G1 X137.821 Y120.572 E0.47696 ; support material
M73 P1 R56
G1 X137.067 Y120.572 E0.02365 ; support material
G1 X137.067 Y135.784 E0.47696 ; support material
G1 X136.312 Y135.784 E0.02365 ; support material
G1 X136.312 Y120.572 E0.47696 ; support material
G1 X135.558 Y120.572 E0.02365 ; support material
G1 X135.558 Y135.784 E0.47696 ; support material
G1 X134.804 Y135.784 E0.02365 ; support material
G1 X134.804 Y120.572 E0.47696 ; support material
G1 X134.050 Y120.572 E0.02365 ; support material
G1 X134.050 Y135.784 E0.47696 ; support material
G1 X133.296 Y135.784 E0.02365 ; support material
G1 X133.296 Y125.208 E0.33161 ; support material
G1 X132.542 Y125.208 E0.02365 ; support material
G1 X132.542 Y135.784 E0.33161 ; support material
G1 X131.787 Y135.784 E0.02365 ; support material
G1 X131.787 Y125.208 E0.33161 ; support material
G1 X131.033 Y125.208 E0.02365 ; support material
G1 X131.033 Y135.784 E0.33161 ; support material
G1 X130.279 Y135.784 E0.02365 ; support material
G1 X130.279 Y125.208 E0.33161 ; support material
G1 X129.525 Y125.208 E0.02365 ; support material
G1 X129.525 Y135.784 E0.33161 ; support material
G1 X128.771 Y135.784 E0.02365 ; support material
G1 X128.771 Y125.208 E0.33161 ; support material
G1 X128.017 Y125.208 E0.02365 ; support material
G1 X128.017 Y135.784 E0.33161 ; support material
G1 X127.262 Y135.784 E0.02365 ; support material
G1 X127.262 Y125.208 E0.33161 ; support material
G1 X126.508 Y125.208 E0.02365 ; support material
G1 X126.508 Y135.784 E0.33161 ; support material
G1 X125.754 Y135.784 E0.02365 ; support material
G1 X125.754 Y125.208 E0.33161 ; support material
G1 X125.000 Y125.208 E0.02365 ; support material
G1 X125.000 Y135.784 E0.33161 ; support material
G1 X124.246 Y135.784 E0.02365 ; support material
G1 X124.246 Y125.208 E0.33161 ; support material
G1 X123.492 Y125.208 E0.02365 ; support material
G1 X123.492 Y135.784 E0.33161 ; support material
G1 X122.738 Y135.784 E0.02365 ; support material
G1 X122.738 Y125.208 E0.33161 ; support material
G1 X121.983 Y125.208 E0.02365 ; support material
G1 X121.983 Y135.784 E0.33161 ; support material
G1 X121.229 Y135.784 E0.02365 ; support material
G1 X121.229 Y125.208 E0.33161 ; support material
G1 X120.475 Y125.208 E0.02365 ; support material
G1 X120.475 Y135.784 E0.33161 ; support material
G1 X119.721 Y135.784 E0.02365 ; support material
G1 X119.721 Y125.208 E0.33161 ; support material
G1 X118.967 Y125.208 E0.02365 ; support material
G1 X118.967 Y135.784 E0.33161 ; support material
G1 X118.213 Y135.784 E0.02365 ; support material
G1 X118.213 Y125.208 E0.33161 ; support material
G1 X117.458 Y125.208 E0.02365 ; support material
G1 X117.458 Y135.784 E0.33161 ; support material
G1 X116.704 Y135.784 E0.02365 ; support material
G1 X116.704 Y125.208 E0.33161 ; support material
G1 X116.381 Y125.208 E0.01013 ; support material
G1 X116.381 Y120.572 E0.14535 ; support material
G1 X115.950 Y120.572 E0.01352 ; support material
G1 X115.950 Y135.784 E0.47696 ; support material
G1 X115.196 Y135.784 E0.02365 ; support material
G1 X115.196 Y120.572 E0.47696 ; support material
G1 X114.442 Y120.572 E0.02365 ; support material
G1 X114.442 Y135.784 E0.47696 ; support material
G1 X113.688 Y135.784 E0.02365 ; support material
G1 X113.688 Y120.572 E0.47696 ; support material
G1 X112.933 Y120.572 E0.02365 ; support material
G1 X112.933 Y135.784 E0.47696 ; support material
G1 X112.179 Y135.784 E0.02365 ; support material
G1 X112.179 Y120.572 E0.47696 ; support material
G1 X111.746 Y120.572 E0.01360 ; support material
G1 X111.746 Y103.335 E0.54047 ; support material
G1 X112.179 Y103.335 E0.01360 ; support material
G1 X112.179 Y88.123 E0.47696 ; support material
G1 X112.933 Y88.123 E0.02365 ; support material
G1 X112.933 Y103.335 E0.47696 ; support material
G1 X113.688 Y103.335 E0.02365 ; support material
G1 X113.688 Y88.123 E0.47696 ; support material
G1 X114.442 Y88.123 E0.02365 ; support material
G1 X114.442 Y103.335 E0.47696 ; support material
G1 X115.196 Y103.335 E0.02365 ; support material
G1 X115.196 Y88.123 E0.47696 ; support material
G1 X115.950 Y88.123 E0.02365 ; support material
G1 X115.950 Y103.335 E0.47696 ; support material
G1 X116.381 Y103.335 E0.01352 ; support material
G1 X116.381 Y96.381 E0.21802 ; support material
G1 X116.704 Y96.381 E0.01013 ; support material
G1 X116.704 Y88.123 E0.25894 ; support material
G1 X117.458 Y88.123 E0.02365 ; support material
G1 X117.458 Y96.381 E0.25894 ; support material
G1 X118.213 Y96.381 E0.02365 ; support material
G1 X118.213 Y88.123 E0.25894 ; support material
G1 X118.967 Y88.123 E0.02365 ; support material
G1 X118.967 Y96.381 E0.25894 ; support material
G1 X119.721 Y96.381 E0.02365 ; support material
G1 X119.721 Y88.123 E0.25894 ; support material
G1 X120.475 Y88.123 E0.02365 ; support material
G1 X120.475 Y96.381 E0.25894 ; support material
G1 X121.229 Y96.381 E0.02365 ; support material
G1 X121.229 Y88.123 E0.25894 ; support material
G1 X121.983 Y88.123 E0.02365 ; support material
G1 X121.983 Y96.381 E0.25894 ; support material
G1 X122.738 Y96.381 E0.02365 ; support material
G1 X122.738 Y88.123 E0.25894 ; support material
G1 X123.492 Y88.123 E0.02365 ; support material
G1 X123.492 Y96.381 E0.25894 ; support material
G1 X124.246 Y96.381 E0.02365 ; support material
G1 X124.246 Y88.123 E0.25894 ; support material
G1 X125.000 Y88.123 E0.02365 ; support material
G1 X125.000 Y96.381 E0.25894 ; support material
G1 X125.754 Y96.381 E0.02365 ; support material
G1 X125.754 Y88.123 E0.25894 ; support material
G1 X126.508 Y88.123 E0.02365 ; support material
G1 X126.508 Y96.381 E0.25894 ; support material
G1 X127.262 Y96.381 E0.02365 ; support material
G1 X127.262 Y88.123 E0.25894 ; support material
G1 X128.017 Y88.123 E0.02365 ; support material
G1 X128.017 Y96.381 E0.25894 ; support material
G1 X128.771 Y96.381 E0.02365 ; support material
G1 X128.771 Y88.123 E0.25894 ; support material
G1 X129.525 Y88.123 E0.02365 ; support material
G1 X129.525 Y96.381 E0.25894 ; support material
G1 X130.279 Y96.381 E0.02365 ; support material
G1 X130.279 Y88.123 E0.25894 ; support material
G1 X131.033 Y88.123 E0.02365 ; support material
G1 X131.033 Y96.381 E0.25894 ; support material
G1 X131.787 Y96.381 E0.02365 ; support material
G1 X131.787 Y88.123 E0.25894 ; support material
G1 X132.542 Y88.123 E0.02365 ; support material
G1 X132.542 Y96.381 E0.25894 ; support material
G1 X133.296 Y96.381 E0.02365 ; support material
G1 X133.296 Y88.123 E0.25894 ; support material
G1 X134.050 Y88.123 E0.02365 ; support material
G1 X134.050 Y103.335 E0.47696 ; support material
G1 X134.804 Y103.335 E0.02365 ; support material
G1 X134.804 Y88.123 E0.47696 ; support material
G1 X135.558 Y88.123 E0.02365 ; support material
G1 X135.558 Y103.335 E0.47696 ; support material
G1 X136.312 Y103.335 E0.02365 ; support material
G1 X136.312 Y88.123 E0.47696 ; support material
G1 X137.067 Y88.123 E0.02365 ; support material
G1 X137.067 Y103.335 E0.47696 ; support material
G1 X137.821 Y103.335 E0.02365 ; support material
G1 X137.821 Y88.123 E0.47696 ; support material
G1 X138.254 Y88.123 E0.01360 ; support material
G1 X138.254 Y87.110 E0.03176 ; support material
G1 X137.821 Y87.110 E0.01360 ; support material
G1 X137.821 Y74.216 E0.40428 ; support material
G1 X137.067 Y74.216 E0.02365 ; support material
G1 X137.067 Y87.110 E0.40428 ; support material
G1 X136.312 Y87.110 E0.02365 ; support material
G1 X136.312 Y74.216 E0.40428 ; support material
G1 X135.558 Y74.216 E0.02365 ; support material
G1 X135.558 Y87.110 E0.40428 ; support material
G1 X134.804 Y87.110 E0.02365 ; support material
G1 X134.804 Y74.216 E0.40428 ; support material
G1 X134.050 Y74.216 E0.02365 ; support material
G1 X134.050 Y87.110 E0.40428 ; support material
G1 X133.296 Y87.110 E0.02365 ; support material
G1 X133.296 Y74.216 E0.40428 ; support material
G1 X132.542 Y74.216 E0.02365 ; support material
G1 X132.542 Y87.110 E0.40428 ; support material
G1 X131.787 Y87.110 E0.02365 ; support material
G1 X131.787 Y74.216 E0.40428 ; support material
G1 X131.033 Y74.216 E0.02365 ; support material
G1 X131.033 Y87.110 E0.40428 ; support material
G1 X130.279 Y87.110 E0.02365 ; support material
G1 X130.279 Y74.216 E0.40428 ; support material
G1 X129.525 Y74.216 E0.02365 ; support material
G1 X129.525 Y87.110 E0.40428 ; support material
G1 X128.771 Y87.110 E0.02365 ; support material
G1 X128.771 Y74.216 E0.40428 ; support material
G1 X128.017 Y74.216 E0.02365 ; support material
G1 X128.017 Y87.110 E0.40428 ; support material
G1 X127.262 Y87.110 E0.02365 ; support material
G1 X127.262 Y74.216 E0.40428 ; support material
G1 X126.508 Y74.216 E0.02365 ; support material
G1 X126.508 Y87.110 E0.40428 ; support material
G1 X125.754 Y87.110 E0.02365 ; support material
G1 X125.754 Y74.216 E0.40428 ; support material
G1 X125.000 Y74.216 E0.02365 ; support material
G1 X125.000 Y87.110 E0.40428 ; support material
G1 X124.246 Y87.110 E0.02365 ; support material
G1 X124.246 Y74.216 E0.40428 ; support material
G1 X123.492 Y74.216 E0.02365 ; support material
G1 X123.492 Y87.110 E0.40428 ; support material
G1 X122.738 Y87.110 E0.02365 ; support material
G1 X122.738 Y74.216 E0.40428 ; support material
G1 X121.983 Y74.216 E0.02365 ; support material
G1 X121.983 Y87.110 E0.40428 ; support material
M73 Q3 S55
G1 X121.229 Y87.110 E0.02365 ; support material
G1 X121.229 Y74.216 E0.40428 ; support material
M73 P3 R55
G1 X120.475 Y74.216 E0.02365 ; support material
G1 X120.475 Y87.110 E0.40428 ; support material
G1 X119.721 Y87.110 E0.02365 ; support material
G1 X119.721 Y74.216 E0.40428 ; support material
G1 X118.967 Y74.216 E0.02365 ; support material
G1 X118.967 Y87.110 E0.40428 ; support material
G1 X118.213 Y87.110 E0.02365 ; support material
G1 X118.213 Y74.216 E0.40428 ; support material
G1 X117.458 Y74.216 E0.02365 ; support material
G1 X117.458 Y87.110 E0.40428 ; support material
G1 X116.704 Y87.110 E0.02365 ; support material
G1 X116.704 Y74.216 E0.40428 ; support material
G1 X115.950 Y74.216 E0.02365 ; support material
G1 X115.950 Y87.110 E0.40428 ; support material
G1 X115.196 Y87.110 E0.02365 ; support material
G1 X115.196 Y74.216 E0.40428 ; support material
G1 X114.442 Y74.216 E0.02365 ; support material
G1 X114.442 Y87.110 E0.40428 ; support material
G1 X113.688 Y87.110 E0.02365 ; support material
G1 X113.688 Y74.216 E0.40428 ; support material
G1 X112.933 Y74.216 E0.02365 ; support material
G1 X112.933 Y87.110 E0.40428 ; support material
G1 X112.179 Y87.110 E0.02365 ; support material
G1 X112.179 Y74.216 E0.40428 ; support material
G1 X111.425 Y74.216 E0.02365 ; support material
G1 X111.425 Y135.784 E1.93042 ; support material
G1 X110.671 Y135.784 E0.02365 ; support material
G1 X110.671 Y74.216 E1.93042 ; support material
G1 X109.917 Y74.216 E0.02365 ; support material
G1 X109.917 Y135.784 E1.93042 ; support material
G1 X109.163 Y135.784 E0.02365 ; support material
G1 X109.163 Y74.216 E1.93042 ; support material
G1 X108.409 Y74.216 E0.02365 ; support material
G1 X108.408 Y135.784 E1.93042 ; support material
G1 X107.654 Y135.784 E0.02365 ; support material
G1 X107.654 Y74.216 E1.93042 ; support material
G1 X106.900 Y74.216 E0.02365 ; support material
G1 X106.900 Y135.784 E1.93042 ; support material
G1 X106.146 Y135.784 E0.02365 ; support material
G1 X106.146 Y74.216 E1.93042 ; support material
G1 X105.392 Y74.216 E0.02365 ; support material
G1 X105.392 Y135.784 E1.93042 ; support material
G1 X104.638 Y135.784 E0.02365 ; support material
