; generated by PrusaSlicer 2.2.0+ on 2020-10-29 at 17:10:51 UTC

; 

; external perimeters extrusion width = 0.45mm
; perimeters extrusion width = 0.45mm
; infill extrusion width = 0.45mm
; solid infill extrusion width = 0.45mm
; top infill extrusion width = 0.40mm
; first layer extrusion width = 0.42mm

M73 P0 R71
M73 Q0 S72
M201 X1000 Y1000 Z200 E5000 ; sets maximum accelerations, mm/sec^2
M203 X200 Y200 Z12 E120 ; sets maximum feedrates, mm/sec
M204 P1250 R1250 T1250 ; sets acceleration (P, T) and retract acceleration (R), mm/sec^2
M205 X8.00 Y8.00 Z0.40 E4.50 ; sets the jerk limits, mm/sec
M205 S0 T0 ; sets the minimum extruding and travel feed rate, mm/sec
M107 ; disable fan
M862.3 P "MK3S" ; printer model check
M862.1 P0.4 ; nozzle diameter check
M115 U3.9.1 ; tell printer latest fw version
G90 ; use absolute coordinates
M83 ; extruder relative mode
M104 S215 ; set extruder temp
M140 S60 ; set bed temp
M190 S60 ; wait for bed temp
M109 S215 ; wait for extruder temp
G28 W ; home all without mesh bed level
G80 ; mesh bed leveling
G1 Y-3.0 F1000.0 ; go outside print area
G92 E0.0
G1 X60.0 E9.0 F1000.0 ; intro line
M73 Q0 S72
M73 P0 R71
G1 X100.0 E12.5 F1000.0 ; intro line
G92 E0.0
M221 S95

; Don't change E values below. Excessive value can damage the printer.
M907 E430 ; set extruder motor current
G21 ; set units to millimeters
G90 ; use absolute coordinates
M83 ; use relative distances for extrusion
M900 K0.05 ; Filament gcode LA 1.5
M900 K30 ; Filament gcode LA 1.0
;BEFORE_LAYER_CHANGE
G92 E0.0
;0.2


G1 E-0.80000 F2100.00000 ; retract
G1 Z0.600 F10800.000 ; lift Z
;AFTER_LAYER_CHANGE
;0.2
G1 X82.430 Y104.597 ; move to first skirt point
G1 Z0.200 ; restore layer Z
G1 E0.80000 F2100.00000 ; unretract
M204 S1000 ; adjust acceleration
G1 F1200.000
G1 X82.747 Y103.958 E0.02237 ; skirt
G1 X83.113 Y103.546 E0.01728 ; skirt
G1 X83.567 Y103.228 E0.01740 ; skirt
G1 X84.083 Y103.024 E0.01740 ; skirt
G1 X84.632 Y102.944 E0.01740 ; skirt
G1 X122.698 Y102.943 E1.19353 ; skirt
G1 X166.298 Y108.741 E1.37909 ; skirt
G1 X167.049 Y108.982 E0.02473 ; skirt
G1 X167.680 Y109.455 E0.02473 ; skirt
G1 X168.163 Y110.207 E0.02802 ; skirt
G1 X168.334 Y111.080 E0.02790 ; skirt
G1 X168.334 Y149.120 E1.19272 ; skirt
G1 X168.221 Y149.821 E0.02225 ; skirt
G1 X167.905 Y150.456 E0.02225 ; skirt
G1 X167.264 Y151.079 E0.02802 ; skirt
G1 X166.435 Y151.422 E0.02813 ; skirt
G1 X122.939 Y159.684 E1.38818 ; skirt
G1 X84.668 Y159.697 E1.19996 ; skirt
G1 X83.967 Y159.583 E0.02225 ; skirt
G1 X83.332 Y159.268 E0.02225 ; skirt
G1 X82.912 Y158.893 E0.01763 ; skirt
G1 X82.593 Y158.430 E0.01763 ; skirt
G1 X82.391 Y157.905 E0.01763 ; skirt
G1 X82.318 Y157.344 E0.01775 ; skirt
G1 X82.317 Y105.302 E1.63174 ; skirt
G1 X82.421 Y104.656 E0.02049 ; skirt
G1 F8640.000
G1 X82.747 Y103.958 E-0.17800 ; wipe and retract
G1 X83.113 Y103.546 E-0.12724 ; wipe and retract
G1 X83.567 Y103.228 E-0.12812 ; wipe and retract
G1 X84.083 Y103.024 E-0.12812 ; wipe and retract
G1 X84.632 Y102.944 E-0.12812 ; wipe and retract
G1 X84.937 Y102.944 E-0.07041 ; wipe and retract
G1 E-0.04000 F2100.00000 ; retract
G1 Z0.800 F10800.000 ; lift Z
G1 X130.127 Y143.712 ; move to first perimeter point
G1 Z0.200 ; restore layer Z
G1 E0.80000 F2100.00000 ; unretract
G1 F1200.000
G1 X130.547 Y143.285 E0.01878 ; perimeter
G1 X131.063 Y142.981 E0.01878 ; perimeter
G1 X131.640 Y142.822 E0.01878 ; perimeter
G1 X132.193 Y142.817 E0.01735 ; perimeter
G1 X132.813 Y142.964 E0.01997 ; perimeter
G1 X133.339 Y143.263 E0.01897 ; perimeter
G1 X133.766 Y143.683 E0.01878 ; perimeter
G1 X134.070 Y144.199 E0.01878 ; perimeter
G1 X134.229 Y144.776 E0.01878 ; perimeter
G1 X134.234 Y145.375 E0.01878 ; perimeter
G1 X134.084 Y145.955 E0.01878 ; perimeter
G1 X133.788 Y146.476 E0.01878 ; perimeter
G1 X133.368 Y146.902 E0.01878 ; perimeter
G1 X132.852 Y147.206 E0.01878 ; perimeter
G1 X132.319 Y147.353 E0.01735 ; perimeter
G1 X131.682 Y147.372 E0.01997 ; perimeter
G1 X131.096 Y147.220 E0.01897 ; perimeter
G1 X130.615 Y146.947 E0.01735 ; perimeter
G1 X130.147 Y146.506 E0.02017 ; perimeter
G1 X129.833 Y145.944 E0.02017 ; perimeter
G1 X129.686 Y145.411 E0.01735 ; perimeter
G1 X129.681 Y144.806 E0.01897 ; perimeter
G1 X129.854 Y144.193 E0.01997 ; perimeter
G1 X130.097 Y143.764 E0.01547 ; perimeter
G1 X130.425 Y143.950 F10800.000 ; move to first perimeter point
G1 F1200.000
G1 X130.780 Y143.585 E0.01598 ; perimeter
G1 X131.211 Y143.332 E0.01566 ; perimeter
G1 X131.693 Y143.199 E0.01566 ; perimeter
G1 X132.151 Y143.195 E0.01436 ; perimeter
G1 X132.674 Y143.319 E0.01686 ; perimeter
G1 X133.110 Y143.566 E0.01573 ; perimeter
G1 X133.466 Y143.917 E0.01566 ; perimeter
G1 X133.719 Y144.347 E0.01566 ; perimeter
G1 X133.853 Y144.829 E0.01566 ; perimeter
G1 X133.857 Y145.328 E0.01566 ; perimeter
G1 X133.731 Y145.812 E0.01566 ; perimeter
G1 X133.485 Y146.246 E0.01566 ; perimeter
G1 X133.134 Y146.602 E0.01566 ; perimeter
G1 X132.704 Y146.856 E0.01566 ; perimeter
G1 X132.262 Y146.978 E0.01436 ; perimeter
G1 X131.725 Y146.993 E0.01686 ; perimeter
G1 X131.239 Y146.867 E0.01573 ; perimeter
G1 X130.841 Y146.641 E0.01436 ; perimeter
G1 X130.448 Y146.271 E0.01693 ; perimeter
G1 X130.184 Y145.800 E0.01693 ; perimeter
G1 X130.062 Y145.359 E0.01436 ; perimeter
G1 X130.058 Y144.857 E0.01573 ; perimeter
G1 X130.204 Y144.339 E0.01686 ; perimeter
G1 X130.395 Y144.002 E0.01215 ; perimeter
G1 X130.268 Y143.582 F10800.000 ; move inwards before travel
G1 F8640.000
G1 X130.780 Y143.585 E-0.13110 ; wipe and retract
G1 X131.211 Y143.332 E-0.11534 ; wipe and retract
G1 X131.693 Y143.199 E-0.11534 ; wipe and retract
G1 X132.151 Y143.195 E-0.10576 ; wipe and retract
G1 X132.674 Y143.319 E-0.12413 ; wipe and retract
G1 X133.110 Y143.566 E-0.11586 ; wipe and retract
G1 X133.272 Y143.726 E-0.05246 ; wipe and retract
G1 E-0.04000 F2100.00000 ; retract
G1 Z0.800 F10800.000 ; lift Z
G1 X159.664 Y145.094 ; move to first perimeter point
G1 Z0.200 ; restore layer Z
G1 E0.80000 F2100.00000 ; unretract
G1 F1200.000
G1 X159.742 Y144.500 E0.01878 ; perimeter
G1 X159.971 Y143.947 E0.01878 ; perimeter
G1 X160.335 Y143.472 E0.01878 ; perimeter
G1 X160.810 Y143.107 E0.01878 ; perimeter
G1 X161.364 Y142.878 E0.01878 ; perimeter
G1 X161.912 Y142.806 E0.01735 ; perimeter
G1 X162.545 Y142.876 E0.01997 ; perimeter
G1 X163.104 Y143.107 E0.01897 ; perimeter
G1 X163.584 Y143.476 E0.01897 ; perimeter
G1 X163.961 Y143.989 E0.01997 ; perimeter
G1 X164.173 Y144.500 E0.01735 ; perimeter
G1 X164.251 Y145.094 E0.01878 ; perimeter
G1 X164.173 Y145.687 E0.01878 ; perimeter
G1 X163.944 Y146.241 E0.01878 ; perimeter
G1 X163.579 Y146.716 E0.01878 ; perimeter
G1 X163.104 Y147.080 E0.01878 ; perimeter
G1 X162.593 Y147.292 E0.01735 ; perimeter
G1 X161.964 Y147.388 E0.01997 ; perimeter
G1 X161.364 Y147.309 E0.01897 ; perimeter
G1 X160.810 Y147.080 E0.01878 ; perimeter
G1 X160.335 Y146.716 E0.01878 ; perimeter
G1 X159.971 Y146.241 E0.01878 ; perimeter
G1 X159.742 Y145.687 E0.01878 ; perimeter
G1 X159.671 Y145.153 E0.01689 ; perimeter
G1 X160.045 Y145.104 F10800.000 ; move to first perimeter point
G1 F1200.000
G1 X160.109 Y144.598 E0.01598 ; perimeter
G1 X160.300 Y144.137 E0.01566 ; perimeter
G1 X160.604 Y143.741 E0.01566 ; perimeter
G1 X161.001 Y143.437 E0.01566 ; perimeter
G1 X161.462 Y143.245 E0.01566 ; perimeter
G1 X161.916 Y143.186 E0.01436 ; perimeter
G1 X162.451 Y143.244 E0.01686 ; perimeter
G1 X162.914 Y143.437 E0.01573 ; perimeter
G1 X163.312 Y143.742 E0.01573 ; perimeter
G1 X163.630 Y144.175 E0.01686 ; perimeter
G1 X163.806 Y144.598 E0.01436 ; perimeter
G1 X163.871 Y145.094 E0.01566 ; perimeter
G1 X163.806 Y145.589 E0.01566 ; perimeter
G1 X163.615 Y146.050 E0.01566 ; perimeter
G1 X163.310 Y146.447 E0.01566 ; perimeter
G1 X162.914 Y146.751 E0.01566 ; perimeter
G1 X162.491 Y146.926 E0.01436 ; perimeter
G1 X161.960 Y147.008 E0.01686 ; perimeter
G1 X161.462 Y146.942 E0.01573 ; perimeter
G1 X161.001 Y146.751 E0.01566 ; perimeter
G1 X160.604 Y146.447 E0.01566 ; perimeter
G1 X160.300 Y146.050 E0.01566 ; perimeter
G1 X160.109 Y145.589 E0.01566 ; perimeter
G1 X160.053 Y145.163 E0.01346 ; perimeter
G1 X159.698 Y144.905 F10800.000 ; move inwards before travel
G1 F8640.000
G1 X160.109 Y144.598 E-0.13110 ; wipe and retract
G1 X160.300 Y144.137 E-0.11534 ; wipe and retract
G1 X160.604 Y143.741 E-0.11534 ; wipe and retract
G1 X161.001 Y143.437 E-0.11534 ; wipe and retract
G1 X161.462 Y143.245 E-0.11534 ; wipe and retract
G1 X161.916 Y143.186 E-0.10576 ; wipe and retract
G1 X162.182 Y143.215 E-0.06177 ; wipe and retract
G1 E-0.04000 F2100.00000 ; retract
G1 Z0.800 F10800.000 ; lift Z
G1 X161.957 Y117.367 ; move to first perimeter point
G1 Z0.200 ; restore layer Z
G1 E0.80000 F2100.00000 ; unretract
G1 F1200.000
G1 X161.369 Y117.290 E0.01861 ; perimeter
G1 X160.821 Y117.063 E0.01861 ; perimeter
G1 X160.350 Y116.701 E0.01861 ; perimeter
G1 X159.988 Y116.231 E0.01861 ; perimeter
G1 X159.761 Y115.682 E0.01861 ; perimeter
G1 X159.683 Y115.087 E0.01881 ; perimeter
G1 X159.778 Y114.463 E0.01979 ; perimeter
G1 X159.988 Y113.957 E0.01719 ; perimeter
G1 X160.350 Y113.486 E0.01861 ; perimeter
G1 X160.821 Y113.125 E0.01861 ; perimeter
G1 X161.369 Y112.897 E0.01861 ; perimeter
G1 X161.913 Y112.826 E0.01719 ; perimeter
G1 X162.540 Y112.895 E0.01979 ; perimeter
G1 X163.094 Y113.125 E0.01881 ; perimeter
G1 X163.565 Y113.486 E0.01861 ; perimeter
G1 X163.927 Y113.957 E0.01861 ; perimeter
G1 X164.154 Y114.505 E0.01861 ; perimeter
G1 X164.231 Y115.094 E0.01861 ; perimeter
G1 X164.154 Y115.682 E0.01861 ; perimeter
G1 X163.927 Y116.231 E0.01861 ; perimeter
G1 X163.565 Y116.701 E0.01861 ; perimeter
G1 X163.094 Y117.063 E0.01861 ; perimeter
G1 X162.546 Y117.290 E0.01861 ; perimeter
G1 X162.017 Y117.360 E0.01673 ; perimeter
G1 X161.968 Y116.986 F10800.000 ; move to first perimeter point
G1 F1200.000
G1 X161.467 Y116.923 E0.01581 ; perimeter
G1 X161.011 Y116.733 E0.01550 ; perimeter
G1 X160.619 Y116.433 E0.01550 ; perimeter
G1 X160.318 Y116.040 E0.01550 ; perimeter
G1 X160.129 Y115.584 E0.01550 ; perimeter
G1 X160.064 Y115.091 E0.01557 ; perimeter
G1 X160.144 Y114.566 E0.01668 ; perimeter
G1 X160.318 Y114.147 E0.01421 ; perimeter
G1 X160.619 Y113.755 E0.01550 ; perimeter
G1 X161.011 Y113.454 E0.01550 ; perimeter
G1 X161.467 Y113.265 E0.01550 ; perimeter
G1 X161.917 Y113.206 E0.01421 ; perimeter
G1 X162.445 Y113.264 E0.01668 ; perimeter
G1 X162.904 Y113.454 E0.01557 ; perimeter
G1 X163.296 Y113.755 E0.01550 ; perimeter
G1 X163.597 Y114.147 E0.01550 ; perimeter
G1 X163.786 Y114.604 E0.01550 ; perimeter
G1 X163.851 Y115.094 E0.01550 ; perimeter
G1 X163.786 Y115.584 E0.01550 ; perimeter
G1 X163.597 Y116.040 E0.01550 ; perimeter
G1 X163.296 Y116.433 E0.01550 ; perimeter
G1 X162.904 Y116.733 E0.01550 ; perimeter
G1 X162.447 Y116.923 E0.01550 ; perimeter
G1 X162.027 Y116.978 E0.01329 ; perimeter
G1 X161.769 Y117.333 F10800.000 ; move inwards before travel
G1 F8640.000
G1 X161.467 Y116.923 E-0.12989 ; wipe and retract
G1 X161.011 Y116.733 E-0.11413 ; wipe and retract
G1 X160.619 Y116.433 E-0.11413 ; wipe and retract
G1 X160.318 Y116.040 E-0.11413 ; wipe and retract
G1 X160.129 Y115.584 E-0.11413 ; wipe and retract
G1 X160.064 Y115.091 E-0.11465 ; wipe and retract
G1 X160.102 Y114.839 E-0.05894 ; wipe and retract
G1 E-0.04000 F2100.00000 ; retract
G1 Z0.800 F10800.000 ; lift Z
G1 X134.247 Y115.229 ; move to first perimeter point
G1 Z0.200 ; restore layer Z
G1 E0.80000 F2100.00000 ; unretract
G1 F1200.000
G1 X134.134 Y115.817 E0.01878 ; perimeter
G1 X133.873 Y116.356 E0.01878 ; perimeter
G1 X133.481 Y116.809 E0.01878 ; perimeter
G1 X132.985 Y117.144 E0.01878 ; perimeter
G1 X132.419 Y117.341 E0.01878 ; perimeter
G1 X131.822 Y117.384 E0.01878 ; perimeter
G1 X131.234 Y117.270 E0.01878 ; perimeter
G1 X130.695 Y117.009 E0.01878 ; perimeter
G1 X130.242 Y116.617 E0.01878 ; perimeter
G1 X129.907 Y116.121 E0.01878 ; perimeter
G1 X129.711 Y115.556 E0.01878 ; perimeter
G1 X129.668 Y114.958 E0.01878 ; perimeter
G1 X129.781 Y114.370 E0.01878 ; perimeter
G1 X130.042 Y113.831 E0.01878 ; perimeter
G1 X130.434 Y113.379 E0.01878 ; perimeter
G1 X130.930 Y113.043 E0.01878 ; perimeter
G1 X131.496 Y112.847 E0.01878 ; perimeter
G1 X132.048 Y112.807 E0.01735 ; perimeter
G1 X132.675 Y112.914 E0.01996 ; perimeter
G1 X133.220 Y113.178 E0.01897 ; perimeter
G1 X133.672 Y113.570 E0.01878 ; perimeter
G1 X134.008 Y114.066 E0.01878 ; perimeter
G1 X134.204 Y114.632 E0.01878 ; perimeter
G1 X134.243 Y115.169 E0.01689 ; perimeter
G1 X133.867 Y115.196 F10800.000 ; move to first perimeter point
G1 F1200.000
G1 X133.773 Y115.697 E0.01598 ; perimeter
G1 X133.555 Y116.147 E0.01566 ; perimeter
G1 X133.228 Y116.524 E0.01566 ; perimeter
G1 X132.815 Y116.804 E0.01566 ; perimeter
G1 X132.343 Y116.968 E0.01566 ; perimeter
G1 X131.844 Y117.004 E0.01566 ; perimeter
G1 X131.354 Y116.910 E0.01566 ; perimeter
G1 X130.905 Y116.691 E0.01566 ; perimeter
G1 X130.527 Y116.365 E0.01566 ; perimeter
G1 X130.247 Y115.951 E0.01566 ; perimeter
G1 X130.083 Y115.479 E0.01566 ; perimeter
G1 X130.047 Y114.981 E0.01566 ; perimeter
G1 X130.142 Y114.490 E0.01566 ; perimeter
G1 X130.360 Y114.041 E0.01566 ; perimeter
G1 X130.687 Y113.663 E0.01566 ; perimeter
G1 X131.100 Y113.383 E0.01566 ; perimeter
G1 X131.572 Y113.219 E0.01566 ; perimeter
G1 X132.029 Y113.186 E0.01437 ; perimeter
G1 X132.559 Y113.277 E0.01685 ; perimeter
G1 X133.010 Y113.496 E0.01573 ; perimeter
G1 X133.388 Y113.823 E0.01566 ; perimeter
G1 X133.668 Y114.236 E0.01566 ; perimeter
G1 X133.832 Y114.708 E0.01566 ; perimeter
G1 X133.863 Y115.136 E0.01346 ; perimeter
G1 X134.202 Y115.415 F10800.000 ; move inwards before travel
G1 F8640.000
G1 X133.773 Y115.697 E-0.13110 ; wipe and retract
G1 X133.555 Y116.147 E-0.11534 ; wipe and retract
G1 X133.228 Y116.524 E-0.11534 ; wipe and retract
G1 X132.815 Y116.804 E-0.11534 ; wipe and retract
G1 X132.343 Y116.968 E-0.11534 ; wipe and retract
G1 X131.844 Y117.004 E-0.11534 ; wipe and retract
G1 X131.623 Y116.961 E-0.05218 ; wipe and retract
G1 E-0.04000 F2100.00000 ; retract
G1 Z0.800 F10800.000 ; lift Z
G1 X128.744 Y111.881 ; move to first perimeter point
G1 Z0.200 ; restore layer Z
G1 E0.80000 F2100.00000 ; unretract
G1 F1200.000
G1 X165.170 Y111.881 E1.14211 ; perimeter
G1 X165.170 Y148.307 E1.14211 ; perimeter
G1 X128.744 Y148.307 E1.14211 ; perimeter
G1 X128.744 Y111.941 E1.14023 ; perimeter
G1 X128.367 Y111.504 F10800.000 ; move to first perimeter point
G1 F1200.000
G1 X165.547 Y111.504 E1.16575 ; perimeter
G1 X165.547 Y148.684 E1.16575 ; perimeter
G1 X128.367 Y148.684 E1.16575 ; perimeter
G1 X128.367 Y111.564 E1.16387 ; perimeter
G1 X128.754 Y111.607 F10800.000 ; move inwards before travel
G1 F8640.000
G1 X131.659 Y111.558 E-0.76000 ; wipe and retract
G1 E-0.04000 F2100.00000 ; retract
G1 Z0.800 F10800.000 ; lift Z
G1 X162.142 Y111.994 ; move to first infill point
G1 Z0.200 ; restore layer Z
G1 E0.80000 F2100.00000 ; unretract
G1 F1200.000
G1 X162.877 Y112.728 E0.03279 ; infill
G1 X162.611 Y112.618 E0.00908 ; infill
G1 X162.183 Y112.571 E0.01361 ; infill
G1 X161.775 Y112.164 E0.01819 ; infill
G1 X161.238 Y112.164 E0.01695 ; infill
G1 X161.650 Y112.575 E0.01838 ; infill
G1 X161.295 Y112.622 E0.01129 ; infill
G1 X161.199 Y112.662 E0.00327 ; infill
G1 X160.701 Y112.164 E0.02223 ; infill
G1 X160.164 Y112.164 E0.01695 ; infill
G1 X160.820 Y112.819 E0.02925 ; infill
G1 X160.678 Y112.878 E0.00485 ; infill
G1 X160.488 Y113.024 E0.00757 ; infill
G1 X159.628 Y112.164 E0.03839 ; infill
G1 X159.091 Y112.164 E0.01695 ; infill
G1 X160.184 Y113.257 E0.04880 ; infill
G1 X159.942 Y113.552 E0.01204 ; infill
G1 X158.554 Y112.164 E0.06198 ; infill
G1 X158.017 Y112.164 E0.01695 ; infill
G1 X159.720 Y113.866 E0.07601 ; infill
G1 X159.563 Y114.246 E0.01297 ; infill
G1 X157.480 Y112.164 E0.09295 ; infill
G1 X156.943 Y112.164 E0.01695 ; infill
G1 X159.459 Y114.679 E0.11231 ; infill
G1 X159.397 Y115.084 E0.01293 ; infill
G1 X159.408 Y115.165 E0.00256 ; infill
G1 X156.407 Y112.164 E0.13397 ; infill
G1 X155.870 Y112.164 E0.01695 ; infill
G1 X159.502 Y115.796 E0.16215 ; infill
